!!!OTL: Das artige M&auml;dchen (2-90) S. 263
!!!id: P0961
**kern
*clefG2
*k[f#]
*G:
{16g
=1
16g
8d
8d
4d
4d
=2
4g
4g
4f#
=3
2e
4a
=4
2a}
=5
{4g
=6
4f#
4f#
4e
=7
4d
4e
4f#
=8
[2.g
=9
2g]}
=10
{4d
=11
4d
4d
4d
=12
2g
4f#
=13
2e
4a
=14
2a}
=15
{4g
=16
4f#
4f#
4e
=17
4d
4e
4f#
=18
4g}
=19
{4.b
8a
=20
4a
4.cc
8b
=21
4a
4.dd
8cc
=22
8cc
16a
16a
4a
4a
=23
4g}
=24
{4.b
8a
=25
4a
4.cc
8b
=26
4b
4.dd
8b
=27
8cc
16a
16a
4a
4a
=28
2.g}
=29
{4d
8d
8d
4g
=30
4e
8e
8e
4a
=31
4f#
8f#
8f#
8f#
8f#
=32
4g
4a
4b
=33
16fffff#
16gggg}
{4d
8d
8d
4g
=34
4e
8e
8e
4a
=35
4f#
4f#
8e
8f#
=36
2.g}
==
*-
!!!minrhy: 16
!!!meters: 3/4 ]  ZZ[8
!!!cut: Das artige M&auml;dchen (2-90) S. 263
!!!reg: Lothringen
!!!trd: PINCK, Louis: Verklingende Weisen, Bd 2, Metz 1928
!!!rhy1:   X_X_X__X__  X__X__X__  X___X__  X___   (x2)
!!!rhy2: X__  X__X__X__  X__X__X__  X___.  ^___
!!!key: P0961  16  G 3/4 ]  ZZ[8
!!!mod: HEPTATONIK IONISCH]  AMBITUS[8
!!!kad: 21211131
!!!akz: -51-62_-7-511_-51-62_-7-51_2241_2341_-5-6-71_-5-6-71_
!!!fot: 'a__b__c__bv_d__dw_e__ew_
!!!for: 'a__b__c__bw_d__dv_e__f__
!!!fok: '~a_V__~a_V__^d_^d_~a_~a_
!! PHRAS[GEMISCHTTAKTIG]
!!!fkt: Liebe, Warten auf einen Freier
!! LOTH VKL
!! PR[57] 2K[7] 2G[10] 3K[3] 3G[0] 4A[0] 4Ü[0] 5A[0] 6K[0] 6G[0]
!! 7K[0] 7G[0] 8A[0] MEHR[0] SI[21] ABS[58] SR[17] SP[3]
!! ST[0] 2k[9] 2g[12] 3k[2] 3g[0] 4d[0] 4ü[0] 5d[0] 6k[0] 6g[0]
!! 7k[0] 7g[0] 8d[0] mehr[0] si[22] dm[-1] sr[21] sp[2]
!! 1F[100] 2F[0] 3F[0] 4F[0] LF[0] 2P[0] 3P[0] 4P[0] TRI[0] DF[1] AB[59]
!! TF[0] U3K[0] U3[0] U4[0] U4Ü[0] U5[0] U6K[0] U6[0] U7K[0] U7[2]
!! N1[8] N2K[0] N2[22] N3K[0] N3[54] N4[14] N4Ü[0] N5[0] N6K[0] N6[0]
!!!n7k: 0] N7[0] O1[0] O2K[0] O2[0] O3K[0] O3[0] HÖ[0
!!!RNB: symbol: &auml;      = a umlaut  (UTF-8: Å„)
